!!!!SEGMENT: pl-wtm--r-1543--003_stefani-jozef--msza-in-f-graduale.krn
!!!cenid: 18xx:1787
!!!COM: Stefani, Józef
!!!COM-rismID: pe30024097
!!!CDT: 1800/04/16-1876/03/19
!!!CNT: Polish
!!!OPR: Msza in F
!!!OTL: Graduale
!!!OMV: 003
!!!PDT:
!!!AGN: Sacred; Mass
!!!SMS-siglum: PL-Wtm
!!!SMS-shelfmark: R 1543
!!!SMS-shelfwork: 001-003 M
!!!SMS-variant:
!!!SMS-altvar:
!!!NIFC-rismSourceID: 1001120491
!!!NIFC-rismChildID: 1001120491
!!!NIFC-islandoraID: pl-wtm:26483
!!!URL-pdf-islandora: https://repozytorium.nifc.pl/islandora/object/pl-wtm%3A26483/datastream/PDF/view
!!!URL-scan: https://polish.musicsources.pl/pl/lokalizacje/galeria/rekopisy/6344 @EN{Scan on Polish Music Sources Website} @PL{Skany w portalu Dziedzictwo Muzyki Polskiej w otwartym dostępie}
!!!ONB-nifc: UWAGA: części Mszy: 1. Kyrie, 2. Gloria, 3. Graduale, 4. Credo, 5. Offertorium, 6. Sanctus, 7. Agnus Dei, 8. Dona nobis
!!!OMD: Andante.
!!!AIN: 1 alto 4 clars 2 cor 2 empty 1 fagot 1 flt 1 oboe 1 organ 1 serp 1 soprn 1 tenor 1 timpa 1 tromp
!!!key:
**kern	**kern	**kern	**text	**text	**dynam	**kern	**kern	**kern	**text	**dynam	**kern	**kern	**dynam	**kern	**dynam	**kern	**dynam	**kern	**dynam	**kern	**kern	**dynam	**kern	**dynam	**kern	**dynam	**kern	**dynam	**kern	**dynam	**kern	**dynam	**kern	**dynam
*part18	*part18	*part17	*part17	*part17	*part17	*part16	*part15	*part14	*part14	*part14	*part13	*part12	*part12	*part11	*part11	*part10	*part10	*part9	*part9	*part8	*part7	*part7	*part6	*part6	*part5	*part5	*part4	*part4	*part3	*part3	*part2	*part2	*part1	*part1
*	*	*group1	*	*	*	*group1	*group1	*group1	*	*	*	*	*	*	*	*	*	*	*	*	*	*	*	*	*	*	*	*	*	*	*	*	*	*
*staff19	*staff18	*staff17	*staff17	*staff17	*	*staff16	*staff15	*staff14	*staff14	*	*staff13	*staff12	*	*staff11	*	*staff10	*	*staff9	*	*staff8	*staff7	*	*staff6	*	*staff5	*	*staff4	*	*staff3	*	*staff2	*	*staff1	*
*Iorgan	*Iempty	*Iempty	*	*	*	*Itenor	*Ialto	*Isoprn	*	*	*Itimpa	*Ifagot	*	*Iempty	*	*Iserp	*	*Itromp	*	*Icor	*Icor	*	*Iclars	*	*Iclars	*	*Iclars	*	*Iclars	*	*Ioboe	*	*Iflt	*
*I"Organo	*	*I"Baſso	*	*	*	*I"Tenore	*I"Alto	*I"Soprano	*	*	*I"Timpani	*I"Fagotti	*	*	*	*I"Tromboni et Serpent	*	*I"Trombe in C.	*	*I"Corni in F.	*I"Corni in C.	*	*I"in C Clarineto 2do	*	*I"Clarineto 1mo	*	*I"Clarinetto in C. Obligato	*	*I"Petit in F. Clarinet	*	*I"Oboe	*	*I"Flauto	*
*I'org	*	*I'B	*	*	*	*I'T	*I'A	*I'S	*	*	*I'timp	*I'fag	*	*	*	*I'trb	*	*I'tr in C	*	*I'cor in F	*I'cor in C	*	*I'cl 2	*	*I'cl 1	*	*I'cl obl	*	*I'cl in F	*	*I'ob	*	*I'fl	*
*clefF4	*clefG2	*clefF4	*	*	*	*clefGv2	*clefG2	*clefG2	*	*	*clefF4	*clefF4	*	*clefF4	*	*clefC4	*	*clefG2	*	*clefG2	*clefG2	*	*clefG2	*	*clefG2	*	*clefG2	*	*clefG2	*	*clefG2	*	*clefG2	*
*	*	*	*	*	*	*	*	*	*	*	*	*	*	*	*	*	*	*	*	*ITrd4c7	*	*	*	*	*	*	*	*	*ITrd4c7	*	*	*	*	*
*k[b-]	*k[b-]	*k[b-]	*	*	*	*k[b-]	*k[b-]	*k[b-]	*	*	*k[b-]	*k[b-]	*	*k[b-]	*	*k[b-]	*	*k[b-]	*	*k[b-]	*k[b-]	*	*k[b-]	*	*k[b-]	*	*k[b-]	*	*k[b-]	*	*k[b-]	*	*k[b-]	*
*F:	*F:	*F:	*	*	*	*F:	*F:	*F:	*	*	*F:	*F:	*	*F:	*	*F:	*	*F:	*	*	*F:	*	*F:	*	*F:	*	*F:	*	*	*	*F:	*	*F:	*
*M3/4	*M3/4	*M3/4	*	*	*	*M3/4	*M3/4	*M3/4	*	*	*M3/4	*M3/4	*	*M3/4	*	*M3/4	*	*M3/4	*	*M3/4	*M3/4	*	*M3/4	*	*M3/4	*	*M3/4	*	*M3/4	*	*M3/4	*	*M3/4	*
*>[A,A]	*>[A,A]	*>[A,A]	*	*	*	*>[A,A]	*>[A,A]	*>[A,A]	*	*	*>[A,A]	*>[A,A]	*	*>[A,A]	*	*>[A,A]	*	*>[A,A]	*	*>[A,A]	*>[A,A]	*	*>[A,A]	*	*>[A,A]	*	*>[A,A]	*	*>[A,A]	*	*>[A,A]	*	*>[A,A]	*
*>A	*>A	*>A	*	*	*	*>A	*>A	*>A	*	*	*>A	*>A	*	*>A	*	*>A	*	*>A	*	*>A	*>A	*	*>A	*	*>A	*	*>A	*	*>A	*	*>A	*	*>A	*
*	*^	*	*	*	*	*	*	*	*	*	*	*	*	*	*	*^	*	*^	*	*	*	*	*	*	*	*	*	*	*	*	*^	*	*	*
!	!	!	!	!	!	!	!	!	!	!	!LO:DY:rj	!	!	!	!	!	!	!	!	!	!	!	!	!	!	!	!	!	!	!	!LO:DY:rj	!	!LO:DY:rj	!	!	!	!LO:TX:a:t=[segno]:problem=znak segno przed nutą	!LO:DY:rj
4F\	4cc/	4a\	4F\	1.) Po-	2.) O	.	4d\	4a/	4cc\	Po-	f	4ryy	4F\	.	4F\	.	4c/	4A\	.	4cc/	4a\	.	4c 4A/	4r	.	4a/	.	4cc\	.	4cc\	f	4cc\	f	4cc/	4a\	.	4ccc\	f
*	*	*	*	*	*	*	*	*	*	*	*	*	*	*	*	*	*v	*v	*	*	*	*	*	*	*	*	*	*	*	*	*	*	*	*	*	*	*	*
=1	=1	=1	=1	=1	=1	=1	=1	=1	=1	=1	=1	=1	=1	=1	=1	=1	=1	=1	=1	=1	=1	=1	=1	=1	=1	=1	=1	=1	=1	=1	=1	=1	=1	=1	=1	=1	=1
*^	*	*	*	*	*	*	*	*	*	*	*	*	*	*	*	*	*	*	*	*	*	*	*	*	*	*	*	*	*	*	*	*	*	*	*	*	*
*	*2\right	*	*2\right	*2\right	*	*	*	*2\right	*	*2\right	*	*	*	*	*	*2\right	*	*2\right	*	*	*2\right	*	*	*	*	*	*	*2\right	*	*	*	*	*	*	*2\right	*	*2\right	*
!	!	!	!	!	!	!	!	!	!	!	!	!	!	!	!	!	!	!	!	!	!	!	!	!	!LO:DY:rj	!	!	!	!	!	!	!	!	!	!	!	!	!
4FF/	2.FF\	2cc/	2a\	2F\	-wstań-	Ty	.	2d\	2a/	2cc\	-wstań-	.	2.ryy	4FF/	.	2F\	.	(2c\ 2A\	.	(2cc/	(2a\	.	2c 2A/	2.cc 2.c/	f	(2a/	.	(2cc\	.	(8cc/L	.	8cc\L	.	2cc/	2a\	.	(2ccc\	.
.	.	.	.	.	.	.	.	.	.	.	.	.	.	.	.	.	.	.	.	.	.	.	.	.	.	.	.	.	.	8a/	.	(8a\	.	.	.	.	.	.
4F\	.	.	.	.	.	.	.	.	.	.	.	.	.	4F\	.	.	.	.	.	.	.	.	.	.	.	.	.	.	.	8f/	.	8f\	.	.	.	.	.	.
.	.	.	.	.	.	.	.	.	.	.	.	.	.	.	.	.	.	.	.	.	.	.	.	.	.	.	.	.	.	8a/	.	8a\	.	.	.	.	.	.
4F\	.	4a/	4f\	4F\	-cie,	Któ-	.	4d\	4f/	4a/	-cie	.	.	4F\	.	4F\	.	4A\) 4F\	.	4a/)	4f\)	.	4A 4F/	.	.	4g/)	.	4a/)	.	8cc/	.	8cc\)	.	4ff\	4a\	.	4aa\)	.
.	.	.	.	.	.	.	.	.	.	.	.	.	.	.	.	.	.	.	.	.	.	.	.	.	.	.	.	.	.	8a/J)	.	8a\J	.	.	.	.	.	.
*	*	*v	*v	*	*	*	*	*	*	*	*	*	*	*	*	*	*	*	*	*v	*v	*	*	*	*	*	*	*	*	*	*	*	*	*	*	*	*	*
=2	=2	=2	=2	=2	=2	=2	=2	=2	=2	=2	=2	=2	=2	=2	=2	=2	=2	=2	=2	=2	=2	=2	=2	=2	=2	=2	=2	=2	=2	=2	=2	=2	=2	=2	=2	=2
4FF/	2.FF\	2ff 2a 2f\	2F\	lu-	-re-	.	2d\	2a/	2ff\	lu-	.	2.ryy	4FF/	.	2F\	.	(2f 2A\	.	(2ff [2a\	.	2f 2A/	2.cc 2.c/	.	2a/	.	2ff\	.	(8ff\L	.	8ff\L	.	2ff/	2a\	.	2fff\	.
.	.	.	.	.	.	.	.	.	.	.	.	.	.	.	.	.	.	.	.	.	.	.	.	.	.	.	.	8cc\	.	(8cc\	.	.	.	.	.	.
4F\	.	.	.	.	.	.	.	.	.	.	.	.	4F\	.	.	.	.	.	.	.	.	.	.	.	.	.	.	8a\	.	8a\	.	.	.	.	.	.
.	.	.	.	.	.	.	.	.	.	.	.	.	.	.	.	.	.	.	.	.	.	.	.	.	.	.	.	8cc\	.	8cc\	.	.	.	.	.	.
4F\	.	4cc 4a 4f\	4F\	-dy	-go	.	4g 4B-\	4a/	4cc\	-dy	.	.	4F\	.	4F\	.	4c 4A\)	.	4cc 4a\])	.	4f 4A/	.	.	4a/	.	4cc\	.	8ff\	.	8ff\	.	4aa\	4cc\	.	4ccc\	.
.	.	.	.	.	.	.	.	.	.	.	.	.	.	.	.	.	.	.	.	.	.	.	.	.	.	.	.	8cc\J)	.	8cc\J)	.	.	.	.	.	.
*v	*v	*	*	*	*	*	*	*	*	*	*	*	*	*	*	*	*	*	*	*	*	*	*	*	*	*	*	*	*	*	*	*v	*v	*	*	*
=3	=3	=3	=3	=3	=3	=3	=3	=3	=3	=3	=3	=3	=3	=3	=3	=3	=3	=3	=3	=3	=3	=3	=3	=3	=3	=3	=3	=3	=3	=3	=3	=3	=3	=3
4BB-/	8ddL 8b-\	8BB-/	na	dzie-	.	8e 8c\	8b-/	8dd\	na	.	2.ryy	4BB-/	.	4r	.	2.r	.	(8ddL 8b-/	.	2.r	2.r	.	(8b-/L	.	(8dd\L	.	(8dd\L	.	(8dd\L	.	8bb-L 8dd\	.	(8ddd\L	.
.	8ccJ 8a\	8BB-/	głos	-ła	.	8d 8B-\	8a/	8cc\	głos	.	.	.	.	.	.	.	.	8ccJ 8a/	.	.	.	.	8a/J)	.	8cc\J)	.	8cc\J	.	8cc\J	.	(8aaJ 8cc\	.	8ccc\J	.
4BB- 4BBB-/	4b- 4g/	4BB-/	Nie-	nie-	.	4c 4A/	4g/	4b-/	Nie-	.	.	4BB- 4BBB-/	.	4r	.	.	.	4b- 4g/)	.	.	.	.	4g/	.	4b-/	.	8b-\L	.	4b-\	.	4gg 4b-\	.	8bb-\L	.
.	.	.	.	.	.	.	.	.	.	.	.	.	.	.	.	.	.	.	.	.	.	.	.	.	.	.	8gg\	.	.	.	.	.	8ggg\	.
4BBn 4BBBn/	4a 4f/	4BBn/	-bios	-po-	.	4B- 4G/	4f/	4a/	-bios	.	.	4BBn 4BBBn/	.	4BBn/	.	.	.	4a 4f/	.	.	.	.	4f/	.	4a/	.	8a\	.	4a\)	.	4ff 4a\)	.	8aa\	.
.	.	.	.	.	.	.	.	.	.	.	.	.	.	.	.	.	.	.	.	.	.	.	.	.	.	.	8ff\J)	.	.	.	.	.	8fff\J)	.
=4	=4	=4	=4	=4	=4	=4	=4	=4	=4	=4	=4	=4	=4	=4	=4	=4	=4	=4	=4	=4	=4	=4	=4	=4	=4	=4	=4	=4	=4	=4	=4	=4	=4	=4
2C 2CC/	4a 4f/	4C/	Pa-	-ię-	.	4B- 4G/	4f/	4a/	Pa-	.	2.ryy	2C 2CC/	.	2C/	.	4f 4A\	.	4a 4f/	.	4a 4f\	4cc 4c/	.	(4f/	.	(4a/	.	(4ff\	.	4a\	.	(4ff 4a\	.	(4fff\	.
.	4g 4e/	4C/	-na	-te	.	4A 4F/	4e/	4g/	-na	.	.	.	.	.	.	4e 4G\	.	4g 4e/	.	4g 4c/	4cc 4c/	.	4e/)	.	4g/)	.	4ee\)	.	4g\	.	4ee 4g\)	.	4eee\)	.
!	!	!	!	!	!	!	!	!	!	!	!	!LO:TX:a:t=P:problem=górna nuta dopisana ołówkiem	!	!	!	!	!	!	!	!	!	!	!	!	!	!	!	!	!	!	!	!	!	!
4c 4C\	4g 4e/	4C/	Niech	U-	.	4A/	4e/	8.g/L	Niech	.	.	4c 4C\	.	4r	.	4r	.	4g 4e/	.	4r	4r	.	4e/	.	4g/	.	(8.g\L	.	(8.g\L	.	4r	.	8.gg\L	.
.	.	.	.	.	.	.	.	16ee/Jk	.	.	.	.	.	.	.	.	.	.	.	.	.	.	.	.	.	.	16ee\Jk)	.	16ee\Jk)	.	.	.	16eee\Jk	.
!!LO:PB:g=original
=5	=5	=5	=5	=5	=5	=5	=5	=5	=5	=5	=5	=5	=5	=5	=5	=5	=5	=5	=5	=5	=5	=5	=5	=5	=5	=5	=5	=5	=5	=5	=5	=5	=5	=5
*	*	*	*	*	*	*	*	*	*	*	*	*	*	*	*	*^	*	*^	*	*^	*	*	*	*	*	*	*	*	*	*	*^	*	*	*
4c 4C\	4ee 4g 4e/	(4C\	źie-	-wiel-	.	2A/	4e/	(4ee\	źie-	.	2.ryy	(4c 4C\	.	(4C/	.	(4c/	2G\	.	4ee/	4e\	.	2.g/	2.g\	4ee 4cc\	.	(4e/	.	4ee\	.	4ee\	.	4ee\	.	2.gg/	4e\	.	(4eee\	.
4d 4D\	4bn 4g 4f/	4D\	.	.	.	.	4f/	4bn\)	.	.	.	4d 4D\	.	4D/	.	4Bn/	.	.	(4bn/	4f\	.	.	.	4dd 4g\	.	4f/	.	4bn\	.	4bn\	.	4bX\	.	.	4f\	.	4bbn\	.
4e 4E\	4cc 4g/	4E\)	-mia	-bia	.	4A/	4g/	4cc\	-mia	.	.	4e 4E\	.	4E/)	.	4c/)	4G\	.	4cc/	4g\	.	.	.	4cc 4e/	.	4g/)	.	4cc\	.	4cc\	.	4ccT\	.	.	4g\	.	4cccT\	.
*	*	*	*	*	*	*	*	*	*	*	*	*	*	*	*	*	*	*	*	*	*	*	*	*	*	*	*	*	*	*	*	*	*	*v	*v	*	*	*
.	.	.	.	.	.	.	.	.	.	.	.	.	.	.	.	.	.	.	.	.	.	.	.	.	.	.	.	.	.	.	.	(16qqb/LL	.	.	.	16qqbb/LL	.
.	.	.	.	.	.	.	.	.	.	.	.	.	.	.	.	.	.	.	.	.	.	.	.	.	.	.	.	.	.	.	.	16qqcc/JJ)	.	.	.	16qqccc/JJ	.
=6	=6	=6	=6	=6	=6	=6	=6	=6	=6	=6	=6	=6	=6	=6	=6	=6	=6	=6	=6	=6	=6	=6	=6	=6	=6	=6	=6	=6	=6	=6	=6	=6	=6	=6	=6	=6	=6
*	*	*	*	*	*	*	*	*	*	*	*	*	*	*	*	*	*	*	*	*	*	*	*	*^	*	*	*	*	*	*	*	*	*	*	*	*	*
4F\	4a 4f/	4F\	ca-	wszel-	.	4B-/	4f/	4a/	ca-	.	2.ryy	4f 4F\)	.	4F\	.	4A/	4F\	.	4a/)	4f\	.	2a/	2f\	4r	4ryy	.	2f/	.	4a/	.	8a/L	.	8a\L	.	4aa 4f 4e\	.	8aa\L)	.
.	.	.	.	.	.	.	.	.	.	.	.	.	.	.	.	.	.	.	.	.	.	.	.	.	.	.	.	.	.	.	(<32bn/LL	.	(32bX\LL	.	.	.	(32bbn\LL	.
.	.	.	.	.	.	.	.	.	.	.	.	.	.	.	.	.	.	.	.	.	.	.	.	.	.	.	.	.	.	.	32a/	.	32a\	.	.	.	32aa\	.
.	.	.	.	.	.	.	.	.	.	.	.	.	.	.	.	.	.	.	.	.	.	.	.	.	.	.	.	.	.	.	32g#X/	.	32g#X\	.	.	.	32gg#X\	.
.	.	.	.	.	.	.	.	.	.	.	.	.	.	.	.	.	.	.	.	.	.	.	.	.	.	.	.	.	.	.	32a/JJJ	.	32a\JJJ	.	.	.	32aa\JJJ	.
4.D 4.DD/	4.ff 4.a 4.f/	4.D\	-ła	-kie	.	4.B-/	4.a/	4.ff\	-ła	.	.	4.d 4.D\	.	4r	.	4r	4ryy	.	4.ff/	4.a\	.	.	.	4r	4ryy	.	.	.	4.ff\	.	4.ff\)	.	4ff\)	.	4r	.	4.fff\)	.
.	.	.	.	.	.	.	.	.	.	.	.	.	.	4r	.	4r	4ryy	.	.	.	p	4rdd	4ryy	4dd/	4dd\	.	4a/	.	.	.	.	.	4r	.	4ff 4a\	.	.	p
8F 8FF/	8dd 8a 8f/	8F\	mil-	ży-	.	8e\	8f/	8dd\	mil-	.	.	8f 8F\	.	.	.	.	.	.	8dd/ 8f/	8ryy	.	.	.	.	.	.	.	.	8dd\	.	8dd\	.	.	.	.	.	8ddd\	.
*	*	*	*	*	*	*	*	*	*	*	*	*	*	*	*	*v	*v	*	*	*	*	*v	*v	*	*	*	*	*	*	*	*	*	*	*	*	*	*	*
=7	=7	=7	=7	=7	=7	=7	=7	=7	=7	=7	=7	=7	=7	=7	=7	=7	=7	=7	=7	=7	=7	=7	=7	=7	=7	=7	=7	=7	=7	=7	=7	=7	=7	=7	=7	=7
*	*^	*	*	*	*	*	*	*	*	*	*	*	*	*	*	*	*	*	*	*	*	*	*	*	*	*	*	*	*	*	*	*	*^	*	*	*
2.G 2.GG\	(4cc/	2.f 2.d\	2G\	-cze-	-ią-	.	2e\	2f/	(4cc\	-cze-	.	2.ryy	4g 4G\	.	2.r	.	2.r	.	(4cc/	4e\	.	2.r	4ee/	4cc\	.	(8e/L	.	(4cc\	.	(4cc\	.	2.r	.	4ee/	2.g\	.	([4ccc\	.
.	.	.	.	.	.	.	.	.	.	.	.	.	.	.	.	.	.	.	.	.	.	.	.	.	.	8g/	.	.	.	.	.	.	.	.	.	.	.	.
.	8cc/L	.	.	.	.	.	.	.	8cc\L	.	.	.	4G 4GG/	.	.	.	.	.	8cc/L	2f\	.	.	2dd 2g/	2ryy	.	8f/	.	8cc\L	.	8cc\L	.	.	.	2dd/	.	.	8ccc\L]	.
.	8bn/	.	.	.	.	.	.	.	8bn\J	.	.	.	.	.	.	.	.	.	8bn/	.	.	.	.	.	.	8g/	.	8bn\	.	8bn\	.	.	.	.	.	.	8bbn\	.
.	8a/	.	8GG/	-nie	-ce	.	8e\	8f/	8a\)	-nie	.	.	4G 4GG/	.	.	.	.	.	8a/	.	.	.	.	.	.	8f/	.	8a\	.	8a\	.	.	.	.	.	.	8aa\	.
.	8b/J	.	8GG/	za-	stwo-	.	8e\	8f/	8b\	za-	.	.	.	.	.	.	.	.	8b/J	.	.	.	.	.	.	8g/J)	.	8b\J)	.	8b\J)	.	.	.	.	.	.	8bb\J	.
*	*v	*v	*	*	*	*	*	*	*	*	*	*	*	*	*	*	*	*	*v	*v	*	*	*v	*v	*	*	*	*	*	*	*	*	*	*	*	*	*	*
=8	=8	=8	=8	=8	=8	=8	=8	=8	=8	=8	=8	=8	=8	=8	=8	=8	=8	=8	=8	=8	=8	=8	=8	=8	=8	=8	=8	=8	=8	=8	=8	=8	=8	=8	=8
*	*	*	*	*	*	*	*	*	*	*	*	*^	*	*	*	*	*	*	*	*	*	*	*	*	*	*	*	*	*	*	*	*	*	*	*
*	*	*	*	*	*	*	*	*	*	*	*	*	*	*	*	*	*	*	*	*	*	*	*	*tremolo	*	*	*	*2\right	*	*2\right	*	*	*	*	*	*
!	!	!	!	!	!	!	!	!	!	!	!	!	!	!	!	!	!	!	!	!LO:HP:a	!	!	!	!	!	!	!	!	!	!	!	!	!	!	!	!
2G 2GG\	2dd 2bn 2f/)	2GG/	-cho-	-rze-	.	2cn\	2f/	2dd\	-cho-	.	2.ryy	2G 2GG/	2ryy	.	2.r	.	2.r	.	(2dd (2f/)	>	2.r	2dd 2g/	.	(8f/L	.	2bn\	.	(2dd\	.	2bX\	>	2ff/	2bn\	.	2ddd\)	.
.	.	.	.	.	.	.	.	.	.	.	.	.	.	.	.	.	.	.	.	.	.	.	.	8g/	.	.	.	.	.	.	.	.	.	.	.	.
.	.	.	.	.	.	.	.	.	.	.	.	.	.	.	.	.	.	.	.	.	.	.	.	8f/	.	.	.	.	.	.	]	.	.	.	.	.
.	.	.	.	.	.	.	.	.	.	.	.	.	.	.	.	.	.	.	.	]	.	.	.	8g/J	.	.	.	.	.	.	.	.	.	.	.	.
*	*	*	*	*	*	*	*	*	*	*	*	*	*	*	*	*	*	*	*	*	*	*	*	*Xtremolo	*	*	*	*	*	*	*	*	*	*	*	*
4G 4C\	4cc 4e/	4C/	-wa	-nie	.	4d\	4e/	4cc\	-wa	.	.	4G/	4C\	.	.	.	.	.	4cc 4e/))	.	.	4cc 4e/	.	4e/)	.	4cc\	.	4cc\)	.	4cc\	.	4ee/	4cc\	.	4ccc\	.
*	*	*	*	*	*	*	*	*	*	*	*	*v	*v	*	*	*	*	*	*	*	*	*	*	*	*	*	*	*	*	*	*	*	*	*	*	*
=9	=9	=9	=9	=9	=9	=9	=9	=9	=9	=9	=9	=9	=9	=9	=9	=9	=9	=9	=9	=9	=9	=9	=9	=9	=9	=9	=9	=9	=9	=9	=9	=9	=9	=9	=9
*	*	*	*	*	*	*	*	*	*	*	*	*	*	*	*	*	*	*	*	*	*^	*	*	*	*	*	*	*	*	*	*	*	*	*	*
!	!	!	!	!	!	!	!	!	!	!LO:DY:a	!	!	!	!	!	!	!	!	!	!	!	!	!	!	!	!	!	!	!	!	!	!	!	!	!	!
8C#X/	8ee 8a 8e/	8C#X/	O-	O-	.	8B-\	8e/	8ee\	O-	mf	2.ryy	8C#X/	.	2.r	.	2.r	.	2.r	.	4r	4r	4ryy	.	8g/	.	8a/	.	8ee\	mf	2.r	.	8ee/L	8ee\	.	2.r	.
8r	8r	8r	.	.	.	8r	8r	8r	.	.	.	8r	.	.	.	.	.	.	.	.	.	.	.	8r	.	8r	.	8r	.	.	.	8cc#X/J	8rc	.	.	.
8C#/	8a 8g 8e/	8C#/	-to	-czyść	.	8B-\	8e/	8a/	-to	.	.	8C#/	.	.	.	.	.	.	.	8r	8r	8ryy	.	8g/	.	8a/	.	8ee\	.	.	.	8a/	8ee\	.	.	.
8r	8r	8r	.	.	.	8r	8r	8r	.	.	.	8r	.	.	.	.	.	.	.	4a 4A/	4ee/	4cc#X\	.	8r	.	8r	.	8r	.	.	.	4aa/	8rc	.	.	.
8C#/	8ee 8a 8e/	8C#/	Bóg	me	.	8B-\	8e/	8ee\	Bóg	.	.	8C#/	.	.	.	.	.	.	.	.	.	.	.	8g/	.	8a/	.	8ee\	.	.	.	.	8ee\	.	.	.
8r	8r	8r	.	.	.	8r	8r	8r	.	.	.	8r	.	.	.	.	.	.	.	8r	8r	8ryy	.	8r	.	8r	.	8r	.	.	.	8gg/	8rc	.	.	.
*	*	*	*	*	*	*	*	*	*	*	*	*	*	*	*	*	*	*	*	*	*v	*v	*	*	*	*	*	*	*	*	*	*	*	*	*	*
!!LO:PB:g=original
=10	=10	=10	=10	=10	=10	=10	=10	=10	=10	=10	=10	=10	=10	=10	=10	=10	=10	=10	=10	=10	=10	=10	=10	=10	=10	=10	=10	=10	=10	=10	=10	=10	=10	=10	=10
8D\	8ff 8a 8f/	8D\	ży-	ser-	.	8B-\	8d/	8ff\	ży-	.	2.ryy	8A 8D\	.	2.r	.	2.r	.	2.r	.	4r	4r	.	8f/	.	8a/	.	8dd\	.	2.r	.	8ff/L	8dd\	.	2.r	.
8r	8r	8r	.	.	.	8r	8r	8r	.	.	.	8r	.	.	.	.	.	.	.	.	.	.	8r	.	8r	.	8r	.	.	.	8dd/J	8rc	.	.	.
*	*	*	*	*	*	*	*	*	*	*	*	*rep	*	*	*	*	*	*	*	*	*	*	*rep	*	*rep	*	*	*	*	*	*	*	*	*	*
8D\	8dd 8a 8f/	8D\	-wy	-ce	.	8B-\	8f/	8dd\	-wy	.	.	8A 8D\	.	.	.	.	.	.	.	8r	8r	.	8f/	.	8a/	.	8dd\	.	.	.	8a/	8dd\	.	.	.
8r	8r	8r	.	.	.	8r	8r	8r	.	.	.	8r	.	.	.	.	.	.	.	4.a 4.A/	4ff 4dd^<\	.	8r	.	8r	.	8r	.	.	.	4aa^/	8rc	.	.	.
*	*	*	*	*	*	*	*	*	*	*	*	*Xrep	*	*	*	*	*	*	*	*	*	*	*Xrep	*	*Xrep	*	*	*	*	*	*	*	*	*	*
*	*	*	*	*	*	*	*	*	*	*	*	*rep	*	*	*	*	*	*	*	*	*	*	*rep	*	*rep	*	*	*	*	*	*	*	*	*	*
8D\	8dd 8a 8f/	8D\	przez	by	.	8e\	8f/	8dd\	przez	.	.	8A 8D\	.	.	.	.	.	.	.	.	.	.	8f/	.	8a/	.	8dd\	.	.	.	.	8dd\	.	.	.
8r	8r	8r	.	.	.	8r	8r	8r	.	.	.	8r	.	.	.	.	.	.	.	.	8r	.	8r	.	8r	.	8r	.	.	.	8dd/	8rc	.	.	.
*	*	*	*	*	*	*	*	*	*	*	*	*Xrep	*	*	*	*	*	*	*	*	*	*	*Xrep	*	*Xrep	*	*	*	*	*	*	*	*	*	*
=11	=11	=11	=11	=11	=11	=11	=11	=11	=11	=11	=11	=11	=11	=11	=11	=11	=11	=11	=11	=11	=11	=11	=11	=11	=11	=11	=11	=11	=11	=11	=11	=11	=11	=11	=11
8A 8AA\	8cc#X 8a 8g 8e/	8AA/	u-	Twe	.	8f\	8g/	8cc#X\	u-	.	2.r	8A 8AA\	.	2.r	.	2.r	.	2.r	.	8a 8A/	8ee 8cc#X\	.	8g/	.	8a/	.	8cc#X\	.	2.r	.	8cc#X/L	8cc#\	.	2.r	.
8r	8r	8r	.	.	.	8r	8r	8r	.	.	.	8r	.	.	.	.	.	.	.	8r	8r	.	8r	.	8r	.	8r	.	.	.	8b-X/J	8rc	.	.	.
*	*	*	*	*	*	*	*	*	*	*	*	*rep	*	*	*	*	*	*	*	*rep	*rep	*	*rep	*	*rep	*	*rep	*	*	*	*	*	*	*	*
8A 8AA\	8cc# 8a 8g 8e/	8AA/	-sta	praw-	.	8f\	8g/	8cc#\	-sta	.	.	8A 8AA\	.	.	.	.	.	.	.	8a 8A/	8ee 8cc#\	.	8g/	.	8a/	.	8cc#\	.	.	.	8a/	8cc#\	.	.	.
8r	8r	8r	.	.	.	8r	8r	8r	.	.	.	8r	.	.	.	.	.	.	.	8r	8r	.	8r	.	8r	.	8r	.	.	.	4aa^/	8rc	.	.	.
*	*	*	*	*	*	*	*	*	*	*	*	*Xrep	*	*	*	*	*	*	*	*Xrep	*Xrep	*	*Xrep	*	*Xrep	*	*Xrep	*	*	*	*	*	*	*	*
*	*	*	*	*	*	*	*	*	*	*	*	*rep	*	*	*	*	*	*	*	*rep	*rep	*	*rep	*	*rep	*	*rep	*	*	*	*	*	*	*	*
8A 8AA\	8cc# 8a 8g 8e/	8AA/	Ka-	-dy	.	8f\	8g/	8cc#\	Ka-	.	.	8A 8AA\	.	.	.	.	.	.	.	8a 8A/	8ee 8cc#\	.	8g/	.	8a/	.	8cc#\	.	.	.	.	8cc#\	.	.	.
8r	8r	8r	.	.	.	8r	8r	8r	.	.	.	8r	.	.	.	.	.	.	.	8r	8r	.	8r	.	8r	.	8r	.	.	.	8gg/	8rc	.	.	.
*	*	*	*	*	*	*	*	*	*	*	*	*Xrep	*	*	*	*	*	*	*	*Xrep	*Xrep	*	*Xrep	*	*Xrep	*	*Xrep	*	*	*	*	*	*	*	*
=12	=12	=12	=12	=12	=12	=12	=12	=12	=12	=12	=12	=12	=12	=12	=12	=12	=12	=12	=12	=12	=12	=12	=12	=12	=12	=12	=12	=12	=12	=12	=12	=12	=12	=12	=12
8D 8DD/	8dd 8a 8f/	8D\	-pła-	świę-	.	8e\	8f/	8dd\	-pła-	.	2.r	8d 8D\	.	4r	.	4r	.	2.r	.	8a 8A/	8ff 8dd\	.	8f/	.	8a/	.	8dd\	.	4r	.	8ff/L	8dd\	.	4r	.
8r	8r	8r	.	.	.	8r	8r	8r	.	.	.	8r	.	.	.	.	.	.	.	8r	8r	.	8r	.	8r	.	8r	.	.	.	8ee/	8rc	.	.	.
8dL 8D\	8dd 8a 8f/	8D/L	-na	-te	.	8e\	8f/	8dd\	-na	.	.	8dL 8D\	.	4r	.	4r	.	.	.	8a 8A/	8ff 8dd\	.	8f/	.	8a/	.	8dd\	.	4r	.	8dd/J	8dd\	.	4r	.
8cnJ 8Cn\	8r	8Cn/J	.	.	.	8r	8r	8r	.	.	.	8cnJ 8Cn\	.	.	.	.	f	.	.	8r	8r	.	8r	.	8r	.	8r	.	.	.	8r	8ryy	.	.	.
!	!	!	!	!	!LO:DY:b:rj	!	!	!	!	!LO:DY:a	!	!	!	!	!	!	!	!	!	!	!	!	!	!	!	!LO:DY:rj	!	!LO:DY:rj	!	!	!	!	!LO:DY:rj	!	!
4B- 4BB-\	4dd 4b- 4f/	4BB-/	od-	zna-	f	4c\	4f/	4dd\	od-	f	.	4B- 4BB-\	.	4BB-/	f	4d 4B-\	.	.	.	4r	4r	.	4b-\	.	4dd\	f	4dd\	f	4b-\	.	4dd/	4b-X\	f	4bb-X\	.
*	*	*	*	*	*	*	*	*	*	*	*	*	*	*	*	*	*	*	*	*	*	*	*	*	*	*	*	*	*	*	*v	*v	*	*	*
=13	=13	=13	=13	=13	=13	=13	=13	=13	=13	=13	=13	=13	=13	=13	=13	=13	=13	=13	=13	=13	=13	=13	=13	=13	=13	=13	=13	=13	=13	=13	=13	=13	=13	=13
*	*^	*	*	*	*	*	*	*	*	*	*	*	*	*	*	*	*	*	*	*	*	*	*	*	*	*	*	*	*	*	*	*	*	*
*tremolo	*	*	*	*	*	*	*	*	*	*	*	*	*2\right	*	*	*	*	*	*	*	*	*	*	*	*	*	*	*	*	*	*	*	*	*	*
!LO:TX:a:t=P:problem=mixed beam	!	!	!	!	!	!	!	!	!	!	!	!	!	!	!	!	!	!	!	!	!	!	!	!	!	!	!	!	!	!	!	!	!	!	!
8BB-/L	4ff 4dd/	2f\	2BB-/	-wie-	-la-	.	(8.e\L	2f/	(8.ff\L	-wie-	.	2.ryy	2B- 2BB-\	.	2BB-/	.	(8.fL 8.d\	.	2.r	.	2f 2F/	2.r	.	(8.dd\L	.	(8.ff\L	.	(8.ff\L	.	(8.dd\L	.	(8.ffL 8.dd\	.	(8.ddd\L	.
8B-\	.	.	.	.	.	.	.	.	.	.	.	.	.	.	.	.	.	.	.	.	.	.	.	.	.	.	.	.	.	.	.	.	.	.	.
.	.	.	.	.	.	.	32f\LL	.	32gg\LL	.	.	.	.	.	.	.	32gLL 32e\	.	.	.	.	.	.	32ee\LL	.	32gg\LL	.	32gg\LL	.	32ee\LL	.	32ggLL 32ee\	.	32eee\LL	.
.	.	.	.	.	.	.	32e\JJJ	.	32ff\JJJ	.	.	.	.	.	.	.	32fJJJ 32d\	.	.	.	.	.	.	32dd\JJJ	.	32ff\JJJ	.	32ff\JJJ	.	32dd\JJJ	.	32ffJJJ 32dd\	.	32ddd\JJJ	.
8BB-/	4ee 4cc/	.	.	.	.	.	4d\	.	4ee\)	.	.	.	.	.	.	.	4e 4c\)	.	.	.	.	.	.	4cc\	.	4ee\)	.	4ee\)	.	4cc\)	.	4ee 4cc\	.	4ccc\	.
8B-\	.	.	.	.	.	.	.	.	.	.	.	.	.	.	.	.	.	.	.	.	.	.	.	.	.	.	.	.	.	.	.	.	.	.	.
8BB-/	4dd 4b-/	4f\	4BB-/	-cznej	-zły	.	4c\)	4f/	4dd\	-cznej	.	.	4B- 4BB-\	.	4BB-/	.	4d 4B-\	.	.	.	4f 4F/	.	.	4b-\)	.	4dd\	.	4dd\	.	4b-\	.	4dd 4b-\)	.	4bb-\)	.
8B-\J	.	.	.	.	.	.	.	.	.	.	.	.	.	.	.	.	.	.	.	.	.	.	.	.	.	.	.	.	.	.	.	.	.	.	.
*	*v	*v	*	*	*	*	*	*	*	*	*	*	*	*	*	*	*	*	*	*	*	*	*	*	*	*	*	*	*	*	*	*	*	*	*
=14	=14	=14	=14	=14	=14	=14	=14	=14	=14	=14	=14	=14	=14	=14	=14	=14	=14	=14	=14	=14	=14	=14	=14	=14	=14	=14	=14	=14	=14	=14	=14	=14	=14	=14
!LO:TX:a:t=P:problem=mixed beam	!	!	!	!	!LO:DY:b	!	!	!	!	!	!	!	!LO:DY:rj	!	!LO:DY:rj	!	!	!	!	!	!	!	!	!	!	!	!	!	!	!	!	!	!	!
8C/L	2cc 2a 2f/	2C/	pra-	we	p	2B-\	2f/	2cc\	pra-	p	2.ryy	2.c 2.C\	p	2.C/	p	(2c 2A\	p	(2cc 2a\	.	2f 2F/	2.r	.	8a'\L	.	8cc\L	p	8cc\	p	8a\	.	8cc 8a\	.	8aa\	.
8c\	.	.	.	.	.	.	.	.	.	.	.	.	.	.	.	.	.	.	.	.	.	.	(8aa\	.	(8ccc\	.	(8aa\L	.	8r	.	(8cccL 8aa\	p	8r	.
8C/	.	.	.	.	.	.	.	.	.	.	.	.	.	.	.	.	.	.	.	.	.	.	8ff\)	.	8aa\)	.	8ff\)	.	4r	.	8aa 8ff\)	.	4r	.
8c\	.	.	.	.	.	.	.	.	.	.	.	.	.	.	.	.	.	.	.	.	.	.	8cc'\	.	8ff'\	.	8cc'\	.	.	.	8ff 8dd'\	.	.	.
8C/	4a 4f/	4C/	-wdy	mnie	.	4d\	4f/	4a/	-wdy	.	.	.	.	.	.	4A 4F/)	.	4a 4f/)	.	4f 4F/	.	.	8a'\	.	8cc'\	.	8a'\	.	4r	.	8cc 8a'\	.	4r	.
8c\J	.	.	.	.	.	.	.	.	.	.	.	.	.	.	.	.	.	.	.	.	.	.	8f'\J	.	8a'\J	.	8f'\J	.	.	.	8aJ 8f'\	.	.	.
!!LO:PB:g=original
=15	=15	=15	=15	=15	=15	=15	=15	=15	=15	=15	=15	=15	=15	=15	=15	=15	=15	=15	=15	=15	=15	=15	=15	=15	=15	=15	=15	=15	=15	=15	=15	=15	=15	=15
!LO:TX:a:t=P:problem=mixed beam	!	!	!	!	!	!	!	!	!	!	!	!	!	!	!	!	!	!	!	!	!	!	!	!	!LO:TX:a:t=Col cl. obl.	!	!	!	!	!	!	!	!	!
8C/L	8gL 8e/	8C/	gło-	go-	.	8d\	8e/	8g/	gło-	.	2.ryy	8cL 8C\	.	8C'/L	.	8GL 8E'/	.	8gL 8e'/	.	2.c 2.C/	2.r	.	8e'/L	.	8g'/Lyy	.	8g'/L	.	2.r	.	8gL 8e'/	.	2.r	.
8c\	8aJ 8f/	8C/	-sić	-dne	.	8d\	8f/	8a/	-sić	.	.	8cJ 8C\	.	8C'/J	.	8AJ 8F'/	.	8aJ 8f'/	.	.	.	.	8f'/J	.	8a'/Jyy	.	8a'/J	.	.	.	8aJ 8f'/	.	.	.
8C/	4b- 4g/	4C/	bę-	swe	.	4d\	4g/	4b-\	bę-	.	.	4c 4C\	.	2C/	.	4B- 4G\	.	4b- 4g'/	.	.	.	.	4g/	.	4b-'\yy	.	4b-'\	.	.	.	4b- 4g/	.	.	.
8c\	.	.	.	.	.	.	.	.	.	.	.	.	.	.	.	.	.	.	.	.	.	.	.	.	.	.	.	.	.	.	.	.	.	.
8C/	8ddL 8b-\	4C/	-dzie	schro-	.	4d\	(8b-/L	(8dd\L	-dzie	.	.	4C 4CC/	.	.	.	8dL 8B-\	.	(8ddL 8b-\	.	.	.	.	(8b-/L	.	(8dd\Lyy	.	(8dd\L	.	.	.	(8ddL 8b-\	.	.	.
8c\J	8ccJ 8a\	.	.	.	.	.	8a/J)	8cc\J)	.	.	.	.	.	.	.	8cJ 8A\	.	8ccJ 8a\)	.	.	.	.	8a/J)	.	8cc\J)yy	.	8cc\J)	.	.	.	8ccJ 8a\)	.	.	.
=16	=16	=16	=16	=16	=16	=16	=16	=16	=16	=16	=16	=16	=16	=16	=16	=16	=16	=16	=16	=16	=16	=16	=16	=16	=16	=16	=16	=16	=16	=16	=16	=16	=16	=16
!	!	!	!	!	!LO:DY:a	!	!	!	!	!LO:DY:a	!	!LO:S:s=2:note:problem=note-level slur	!	!	!	!LO:TX:t=P:problem=diminuendolike accent	!	!LO:TX:t=P:problem=diminuendolike accent	!	!	!	!	!	!	!	!	!	!	!	!	!	!	!	!
4c#X 4C#X\	4b- 4g 4e/	4C#X/	sło-	-nie-	>	4f\	4g/	4b-\	sło-	>	2.ryy	(4C#X (>4CC#X/	.	(4C#X^/	.	(4e (4B-^<\	.	(4b- 4g^/	.	4r	(4ee 4cc#X^<\	.	(4g/	.	(4b-^/yy	.	(4b-^/	.	(4g\	.	4b- 4g/	.	(4bb-^<\	.
8d 8D\	8a 8f/	8D/	-wa	-nie	]	8g\	8f/	8a\	-wa	]	.	8D) 8DD/)	.	8D/)	.	8f 8A\))	.	8a 8f/)	.	4r	8ff 8dd\)	.	8f/)	.	8a/)yy	.	8a/)	.	8f\)	.	8a 8f/	.	8aa\)	.
8r	8r	8r	.	.	.	8r	8r	8r	.	.	.	8r	.	8r	.	8r	.	8r	.	.	8r	.	8r	.	8ryy	.	8r	.	8r	.	8r	.	8r	.
!	!	!	!	!	!	!	!	!	!	!	!	!	!LO:DY:a:rj	!	!	!	!	!	!	!	!	!	!	!	!	!	!	!LO:DY:rj	!	!LO:DY:rj	!	!	!	!LO:DY:rj
4B- 4BB-\	4dd 4b- 4f/	4BB-/	Od-	Zna-	.	4c\	4f/	4dd\	Od-	.	.	4B- 4BB-\	f	4BB-/	.	4d 4B-\	f	4r	.	4f 4F/	4r	.	4b-\	.	4dd\yy	.	4dd\	f	4b-\	f	4dd 4b-\	.	4bb-\	f
=17	=17	=17	=17	=17	=17	=17	=17	=17	=17	=17	=17	=17	=17	=17	=17	=17	=17	=17	=17	=17	=17	=17	=17	=17	=17	=17	=17	=17	=17	=17	=17	=17	=17	=17
*	*^	*	*	*	*	*	*	*	*	*	*	*	*	*	*	*	*	*	*	*	*	*	*	*	*	*	*	*	*	*	*	*	*	*
!LO:TX:a:t=P:problem=mixed beam	!	!	!	!	!	!	!	!	!	!	!	!	!	!	!	!	!	!	!	!	!	!	!	!	!	!	!	!	!	!	!	!	!	!	!
8BB-/L	4ff 4dd/	2f\	2BB-/	-wie-	-la-	.	(8.e\L	2f/	(8.ff\L	-wie-	.	2.ryy	2B- 2BB-\	.	2BB-/	.	(8.fL 8.d\	.	2.r	.	2f 2F/	2.r	.	(8.dd\L	.	(8.ff\Lyy	.	(8.ff\L	.	(8.dd\L	.	(8.ffL 8.dd\	.	(8.ddd\L	.
8B-\	.	.	.	.	.	.	.	.	.	.	.	.	.	.	.	.	.	.	.	.	.	.	.	.	.	.	.	.	.	.	.	.	.	.	.
.	.	.	.	.	.	.	32f\LL	.	32gg\LL	.	.	.	.	.	.	.	32gLL 32e\	.	.	.	.	.	.	32ee\LL	.	32gg\LLyy	.	32gg\LL	.	32ee\LL	.	32ggLL 32ee\	.	32eee\LL	.
.	.	.	.	.	.	.	32e\JJJ	.	32ff\JJJ	.	.	.	.	.	.	.	32fJJJ 32d\	.	.	.	.	.	.	32dd\JJJ	.	32ff\JJJyy	.	32ff\JJJ	.	32dd\JJJ	.	32ffJJJ 32dd\	.	32ddd\JJJ	.
8BB-/	4ee 4cc/	.	.	.	.	.	4d\)	.	4ee\)	.	.	.	.	.	.	.	4e 4c\)	.	.	.	.	.	.	4cc\)	.	4ee\)yy	.	4ee\)	.	4cc\)	.	4ee 4cc\)	.	4ccc\	.
8B-\	.	.	.	.	.	.	.	.	.	.	.	.	.	.	.	.	.	.	.	.	.	.	.	.	.	.	.	.	.	.	.	.	.	.	.
8BB-/	4dd 4b-/	4f\	4BB-/	-cznej	-zły	.	4c\	4f/	4dd\	-cznej	.	.	4B- 4BB-\	.	4BB-/	.	4d 4B-\	.	.	.	4f 4F/	.	.	4b-\	.	4dd\yy	.	4dd\	.	4b-\	.	4dd 4b-\	.	4bb-\)	.
8B-\J	.	.	.	.	.	.	.	.	.	.	.	.	.	.	.	.	.	.	.	.	.	.	.	.	.	.	.	.	.	.	.	.	.	.	.
*	*v	*v	*	*	*	*	*	*	*	*	*	*	*	*	*	*	*	*	*	*	*	*	*	*	*	*	*	*	*	*	*	*	*	*	*
=18	=18	=18	=18	=18	=18	=18	=18	=18	=18	=18	=18	=18	=18	=18	=18	=18	=18	=18	=18	=18	=18	=18	=18	=18	=18	=18	=18	=18	=18	=18	=18	=18	=18	=18
*	*	*	*	*	*	*	*	*	*	*	*	*	*	*	*	*^	*	*^	*	*	*^	*	*	*	*	*	*	*	*	*	*	*	*	*
!LO:TX:a:t=P:problem=mixed beam	!	!	!	!	!	!	!	!	!	!	!	!	!	!	!LO:DY:rj	!	!	!LO:DY:rj	!	!	!	!	!	!	!	!	!	!	!	!	!	!	!	!	!	!	!
8C/L	2cc 2a 2f/	2C/	pra-	we	.	2B-\	2f/	2cc\	pra-	.	2.ryy	2.c 2.C\	.	2.C/	p	2c/	2A\	p	(2cc/	(>2a\	.	8f 8F/	2.cc/	2.cc\	p	8a\	.	8cc\yy	.	8cc\	.	8a\	.	8cc 8a\	.	8aa\	.
8c\	.	.	.	.	.	.	.	.	.	.	.	.	.	.	.	.	.	.	.	.	.	(8ccL 8a\	.	.	.	(8aa\L	.	(8ccc\Lyy	.	(8ccc\L	.	8r	.	(8cccL 8aa\	.	8r	.
8C/	.	.	.	.	.	.	.	.	.	.	.	.	.	.	.	.	.	.	.	.	.	8a 8f\)	.	.	.	8ff\)	.	8aa\)yy	.	8aa\)	.	4r	.	8aa 8ff\)	.	4r	.
8c\	.	.	.	.	.	.	.	.	.	.	.	.	.	.	.	.	.	.	.	.	.	8f 8c'\	.	.	.	8dd'\	.	8ff'\yy	.	8ff'\	.	.	.	8ff 8dd'\	.	.	.
8C/	4a 4f/	4C/	-wdy	mnie	.	4d\	4f/	4a/	-wdy	.	.	.	.	.	.	4f/	4A\	.	4a/)	4f\)	.	8c 8A'\	.	.	.	8a'\	.	8cc'\yy	.	8cc'\	.	4r	.	8cc 8a'\	.	4r	.
8c\J	.	.	.	.	.	.	.	.	.	.	.	.	.	.	.	.	.	.	.	.	.	8AJ 8F'\	.	.	.	8f'\J	.	8a'\Jyy	.	8a'\J	.	.	.	8aJ 8f'\	.	.	.
*	*	*	*	*	*	*	*	*	*	*	*	*	*	*	*	*v	*v	*	*	*	*	*	*v	*v	*	*	*	*	*	*	*	*	*	*	*	*	*
*	*	*	*	*	*	*	*	*	*	*	*	*	*	*	*	*	*	*v	*v	*	*	*	*	*	*	*	*	*	*	*	*	*	*	*	*
=19||	=19||	=19||	=19||	=19||	=19||	=19||	=19||	=19||	=19||	=19||	=19||	=19||	=19||	=19||	=19||	=19||	=19||	=19||	=19||	=19||	=19||	=19||	=19||	=19||	=19||	=19||	=19||	=19||	=19||	=19||	=19||	=19||	=19||	=19||
!!!OMD: Adagio
*	*	*	*	*	*	*	*	*	*	*	*	*	*	*	*	*	*	*	*	*	*	*	*	*	*	*	*	*	*	*	*^	*	*	*
!	!	!	!	!	!	!	!	!LO:TX:a:i:t=adagio	!	!	!	!	!	!	!	!	!	!	!	!	!	!	!	!	!	!	!	!	!	!	!	!	!	!	!
2c 2C\	8.ccL 8.g 8.e/	8.C/	gło-	go-	.	8.d\	8.e/	8.cc\	gło-	.	2.ryy	2.C 2.CC/	.	2.C/	.	8eL 8c\	.	8ccL 8e/	.	2.c 2.C/	2.cc 2.c/	<[	8e/L	.	8cc\L	.	8c/L	.	8.r	.	8ccL 8e/	4ryy	.	8.r	.
.	.	.	.	.	.	.	.	.	.	.	.	.	.	.	.	16r	.	16r	.	.	.	.	16r	.	16r	.	16rc	.	.	.	16r	.	.	.	.
.	16ccJk 16a 16e/	16C/	-sić	-dne	.	16d\	16e/	16cc\	-sić	.	.	.	.	.	.	16eJk 16c\	.	16ccJk 16e/	.	.	.	.	16e/Jk	.	16cc\Jk	.	16cc/Jk	.	16cc\	.	16cc/Jk	.	.	16ccc\	.
.	4dd 4bn 4f/	4C/	bę-	swe	.	4cn\	4f/	4dd\	bę-	.	.	.	.	.	.	4f 4d\	.	4bn 4f/	.	.	.	.	4f/	.	4bn\	.	4dd\	.	4ddT\	<	4dd/	4bn\	.	4dddT\	<
.	.	.	.	.	.	.	.	.	.	.	.	.	.	.	.	.	.	.	.	.	.	.	.	.	.	.	.	.	(16qqcc/LL	.	.	.	.	(16qqccc#X/LL	.
.	.	.	.	.	.	.	.	.	.	.	.	.	.	.	.	.	.	.	.	.	.	.	.	.	.	.	.	.	16qqdd/JJ)	.	.	.	.	16qqddd/JJ)	.
4C 4CC/	4ee 4cc 4b-X 4g/	4C/	-dzie	schro-	.	4c-X\	4g/	4ee\	-dzie	.	.	.	.	.	.	4g 4e\	.	4b-X 4g/	.	.	.	.	4g/	.	4b-X\	.	4ee\	.	4eet\	.	4ee/	4b-X\	.	4eeet\	.
.	.	.	.	.	.	.	.	.	.	.	.	.	.	.	.	.	.	.	.	.	.	.	.	.	.	.	.	.	.	[	.	.	.	.	[
.	.	.	.	.	.	.	.	.	.	.	.	.	.	.	.	.	.	.	.	.	.	.	.	.	.	.	.	.	16qqdd/LL	.	.	.	.	(16qqddd/LL	.
.	.	.	.	.	.	.	.	.	.	.	.	.	.	.	.	.	.	.	.	.	.	.	.	.	.	.	.	.	16qqee/JJ	.	.	.	.	16qqeee/JJ)	.
*	*	*	*	*	*	*	*	*	*	*	*	*	*	*	*	*	*	*	*	*	*	*	*	*	*	*	*	*	*	*	*v	*v	*	*	*
!!LO:PB:g=original
=20	=20	=20	=20	=20	=20	=20	=20	=20	=20	=20	=20	=20	=20	=20	=20	=20	=20	=20	=20	=20	=20	=20	=20	=20	=20	=20	=20	=20	=20	=20	=20	=20	=20	=20
*	*	*	*	*	*	*	*	*	*	*	*	*	*	*^	*	*	*	*	*	*	*^	*	*	*	*	*	*	*	*	*	*	*	*	*
([2.F 2.FF/	2ee 2cc 2b- 2g\	2.F\	sło-	-nie-	.	(2c\	2g/	(2ee\	sło-	.	2.ryy	2.F 2.FF/	.	2.ryy	[>2.F\	.	2e 2B-\	.	(2b- (2g/	.	2.A 2.F/	2.cc/	2.cc\	.	(2g/	.	(2b-/	.	(2ee\	.	(2ee\	.	(2gg 2b-\	.	(2eee\	.
.	4ff 4cc 4a 4f\	.	.	.	.	4B-\)	4f/	4ff\)	.	.	.	.	.	.	.	.	4f 4A\	.	4a 4f/))	.	.	.	.	.	4f/)	.	4a/)	.	4ff\)	.	4ff\)	.	4ff 4a\)	.	4fff\)	.
=21	=21	=21	=21	=21	=21	=21	=21	=21	=21	=21	=21	=21	=21	=21	=21	=21	=21	=21	=21	=21	=21	=21	=21	=21	=21	=21	=21	=21	=21	=21	=21	=21	=21	=21	=21	=21
*^	*	*	*	*	*	*	*	*	*	*	*	*	*	*	*	*	*	*	*	*	*	*	*	*	*	*	*	*	*	*	*	*	*	*	*	*
8F/L])	8FF\L	4ff 4cc 4a 4f\	4F\	-wa.	-nie.	.	4B-\	4f/	4ff\	-wa.	.	2.ryy	[2.F [2.FF/	.	2.ryy	4F\]	.	4f 4A\	.	8aL 8f/	.	[2.A [2.F/	[2.cc/	2.cc\	.	[2.f/	.	[2.a/	.	[2.ff\	.	4ff\	.	8ffL 8a\	.	4fff\	.
16r	16r	.	.	.	.	.	.	.	.	.	.	.	.	.	.	.	.	.	.	16r	.	.	.	.	.	.	.	.	.	.	.	.	.	16r	.	.	.
16c/Jk	16A\Jk	.	.	.	.	.	.	.	.	.	.	.	.	.	.	.	.	.	.	(16ccJk 16a/	.	.	.	.	.	.	.	.	.	.	.	.	.	(16ccJk 16a\	.	.	.
[2A/	2F\	8r	4r	.	.	.	4r	4r	4r	.	.	.	.	.	.	4r	.	4r	.	[2a [2f/)	.	.	.	.	.	.	.	.	.	.	.	4r	.	[2a [2f/)	.	8r	.
.	.	8cc\	.	.	.	.	.	.	.	.	.	.	.	.	.	.	.	.	.	.	.	.	.	.	.	.	.	.	.	.	.	.	.	.	.	8ccc\	.
.	.	(8qbn/	.	.	.	.	.	.	.	.	.	.	.	.	.	.	.	.	.	.	.	.	.	.	.	.	.	.	.	.	.	.	.	.	.	(8qbbn/	.
.	.	8.ccT\L)	4r	.	.	.	4r	4r	4r	.	.	.	.	.	.	4r	.	4r	.	.	.	.	.	.	.	.	.	.	.	.	.	4r	.	.	.	8.cccT\L)	.
.	.	(32bny\LL	.	.	.	.	.	.	.	.	.	.	.	.	.	.	.	.	.	.	.	.	.	.	.	.	.	.	.	.	.	.	.	.	.	(32bb\LL	.
.	.	32cc\JJJ)	.	.	.	.	.	.	.	.	.	.	.	.	.	.	.	.	.	.	.	.	.	.	.	.	.	.	.	.	.	.	.	.	.	32ccc\JJJ)	.
*v	*v	*	*	*	*	*	*	*	*	*	*	*	*	*	*v	*v	*	*	*	*	*	*	*	*	*	*	*	*	*	*	*	*	*	*	*	*	*
=22	=22	=22	=22	=22	=22	=22	=22	=22	=22	=22	=22	=22	=22	=22	=22	=22	=22	=22	=22	=22	=22	=22	=22	=22	=22	=22	=22	=22	=22	=22	=22	=22	=22	=22	=22
8A]L 8F\	4ff\	2.r	.	.	.	2.r	2.r	2.r	.	.	2.ryy	2.F_ 2.FF/_	.	2.r	.	2.r	.	8a]L 8f/]	.	2.A_ 2.F/_	2.cc/]	2.cc\	.	2.f/_	.	2.a/_	.	4ff\]	.	2.r	.	8a]L 8f/]	.	4fff\	.
16r	.	.	.	.	.	.	.	.	.	.	.	.	.	.	.	.	.	16r	.	.	.	.	.	.	.	.	.	.	.	.	.	16r	.	.	.
16cJk 16A\	.	.	.	.	.	.	.	.	.	.	.	.	.	.	.	.	.	16ccJk 16a/	.	.	.	.	.	.	.	.	.	.	.	.	.	(16ccJk (16a/	.	.	.
2A 2F\	8r	.	.	.	.	.	.	.	.	.	.	.	.	.	.	.	.	[2a [2f/	.	.	.	.	.	.	.	.	.	8r	.	.	.	2a) 2f/)	.	4r	.
.	8cc\	.	.	.	.	.	.	.	.	.	.	.	.	.	.	.	.	.	.	.	.	.	.	.	.	.	.	8cc\	.	.	.	.	.	.	.
.	(8qbn/	.	.	.	.	.	.	.	.	.	.	.	.	.	.	.	.	.	.	.	.	.	.	.	.	.	.	(8qbn/	.	.	.	.	.	.	.
.	8.ccT\L)	.	.	.	.	.	.	.	.	.	.	.	.	.	.	.	.	.	.	.	.	.	.	.	.	.	.	8.ccT\L)	.	.	.	.	.	4r	.
.	32bny\LL	.	.	.	.	.	.	.	.	.	.	.	.	.	.	.	.	.	.	.	.	.	.	.	.	.	.	(32b\LL	.	.	.	.	.	.	.
.	32cc\JJJ	.	.	.	.	.	.	.	.	.	.	.	.	.	.	.	.	.	.	.	.	.	.	.	.	.	.	32cc\JJJ)	.	.	.	.	.	.	.
=23	=23	=23	=23	=23	=23	=23	=23	=23	=23	=23	=23	=23	=23	=23	=23	=23	=23	=23	=23	=23	=23	=23	=23	=23	=23	=23	=23	=23	=23	=23	=23	=23	=23	=23	=23
8.AL 8.F\	[2.ff [2.a [2.f\	2.r	.	.	.	2.r	2.r	2.r	.	.	2.ryy	8.FL] 8.FF]/	.	8.r	.	4r	f	8a] 8f/]	.	8A] 8F/]	8cc/	8cc\	.	8f/]	.	8a/]	.	8ff\	.	4r	.	8a 8f/	.	4r	f
.	.	.	.	.	.	.	.	.	.	.	.	.	.	.	.	.	.	8r	.	8r	8r	8ryy	.	8r	.	8r	.	8r	f	.	.	8r	.	.	.
16F\Jk	.	.	.	.	.	.	.	.	.	.	.	16F/Jk	.	16F\	.	.	.	.	.	.	.	.	.	.	.	.	f	.	.	.	.	.	.	.	.
8.C/L	.	.	.	.	.	.	.	.	.	.	.	8.C/L	.	8.C/L	.	8f 8A\	.	8a 8f/	.	8A 8F/	8cc/	8cc\	.	8f/	f	8a/	.	8ff\	.	8ff\	.	8ff 8a\	.	8fff\	.
.	.	.	.	.	.	.	.	.	.	.	.	.	.	.	.	8r	.	8r	.	8r	8r	8ryy	.	8r	.	8r	.	8r	.	8r	.	8r	.	8r	.
16F/K	.	.	.	.	.	.	.	.	.	.	.	16F/K	.	16F/K	.	.	.	.	.	.	.	.	.	.	.	.	.	.	.	.	.	.	.	.	.
8.AA/	.	.	.	.	.	.	.	.	.	.	.	8.AA/	.	8.AA/	.	8f 8A\	.	8a 8f/	.	8A 8F/	8cc/	8cc\	.	8f/	.	8a/	.	8ff\	.	8ff\	.	8ff 8a\	.	8fff\	.
.	.	.	.	.	.	.	.	.	.	.	.	.	.	.	.	8r	.	8r	.	8r	8r	8ryy	.	8r	.	8r	.	8r	.	8r	.	8r	.	8r	.
16C/Jk	.	.	.	.	.	.	.	.	.	.	.	16C/Jk	.	16C/Jk	.	.	.	.	.	.	.	.	.	.	.	.	.	.	.	.	.	.	.	.	.
=24	=24	=24	=24	=24	=24	=24	=24	=24	=24	=24	=24	=24	=24	=24	=24	=24	=24	=24	=24	=24	=24	=24	=24	=24	=24	=24	=24	=24	=24	=24	=24	=24	=24	=24	=24
4F 4FF/	4ff] 4a] 4f\]	4r	.	.	.	4r	4r	4r	.	.	2ryy	4FF/	.	4FF/	.	4f 4A\	.	4a 4f/	.	4A 4F/	4cc/	4cc\	.	4f/	.	4a/	.	4ff\	.	4ff\	.	4ff 4a\	.	4fff\	.
!LO:N:vis=4	!LO:N:vis=4	!	!	!	!	!	!	!	!	!	!	!	!	!	!	!	!	!	!	!	!	!	!	!	!	!	!	!	!	!	!	!	!	!LO:TX:a:t=[segno]:problem=znak segno na kresce taktowej	!
8r	8r	4r;	.	.	.	4r;	4r;	4r;	.	.	.	4r;	.	4r;	.	4r;	.	4r;	.	4r;	4r;	4ryy	.	4r;	.	4r;	.	4r;	.	4r;	.	4r;	.	4r;	.
!LO:N:vis=4	!LO:N:vis=4	!	!	!	!	!	!	!	!	!	!	!	!	!	!	!	!	!	!	!	!	!	!	!	!	!	!	!	!	!	!	!	!	!	!
8r;	8r;	.	.	.	.	.	.	.	.	.	.	.	.	.	.	.	.	.	.	.	.	.	.	.	.	.	.	.	.	.	.	.	.	.	.
*	*	*	*	*	*	*	*	*	*	*	*	*	*	*	*	*	*	*	*	*	*v	*v	*	*	*	*	*	*	*	*	*	*	*	*	*
==	==	==	==	==	==	==	==	==	==	==	==	==	==	==	==	==	==	==	==	==	==	==	==	==	==	==	==	==	==	==	==	==	==	==
*-	*-	*-	*-	*-	*-	*-	*-	*-	*-	*-	*-	*-	*-	*-	*-	*-	*-	*-	*-	*-	*-	*-	*-	*-	*-	*-	*-	*-	*-	*-	*-	*-	*-	*-
!!!system-decoration: [{(p1,p2,p3)}{(p4,p5,p6)}{(p7,p8)}<p9>{(p10,p11)}<p12><p13>{g1}{(p18)}]
!!!RDF**kern: > = above
!!!RDF**kern: < = below
!!!ENC: Marta Lawrence
!!!END: 2021-04-24
!!!ENC: Mateusz Solarz
!!!END: 2021-04-08
!!!YEC: Copyright 2022 Narodowy Instytut Fryderyka Chopina (https://polishscores.org)
!!!YEM: License CC-BY-4.0 (https://creativecommons.org/licenses/by/4.0)
